public/illustrations/_newspaper.svg

<svg width="298" height="153" viewBox="0 0 298 153" fill="none" xmlns="http://www.w3.org/2000/svg">
<path d="M236.427 22.3423C241.808 21.96 246.678 21.6628 251.549 21.3513C261.049 20.9265 270.607 20.6998 280.164 20.1477C284.652 19.9778 287.399 22.0876 289.282 25.9953C294.662 36.9541 297.522 48.8896 297.848 61.1651C298.004 69.2638 297.083 77.3203 295.016 85.1358C293.685 90.7851 291.915 96.3776 289.508 101.659C288.149 104.462 287.299 107.506 285.869 110.126C282.712 116.299 279.102 122.104 275.236 127.781C272.489 131.802 269.559 135.569 266.246 139.151C265.552 139.915 264.745 140.623 263.74 141.076C262.734 141.53 261.658 141.799 260.71 141.813C255.712 142.053 250.77 142.492 245.772 142.733C222.807 144.007 199.884 145.14 176.919 146.414C159.319 147.306 141.791 148.071 124.135 149.09C101.864 150.223 79.5778 151.355 57.108 152.559C53.8798 152.729 50.7224 153.069 47.7208 151.454C46.3191 150.775 44.5493 150.86 42.8361 150.492C37.1302 149.288 32.7127 146.046 28.366 142.365C21.7822 136.489 16.4444 129.325 12.6216 121.325C5.23078 106.402 0.997296 90.1762 0.190253 73.7239C-0.51768 61.5758 0.742455 49.2719 4.09806 37.5203C5.25907 33.5134 7.36866 29.8183 10.2429 26.8166C13.4286 23.4894 16.8266 20.4168 20.4654 17.4577C21.7821 16.6789 23.2972 16.1551 24.7555 16.0843C31.7074 15.3764 38.7302 14.8525 45.7529 14.3287C59.0337 13.2243 72.2579 12.2615 85.5529 11.1572C99.1593 10.0528 112.879 9.01915 126.485 7.91478L195.452 2.39307L225.695 0.0850345C226.332 0.0850345 226.828 0.0141586 227.465 0C230.764 0.0283172 232.293 1.40195 232.831 4.50268C233.907 10.3785 235.054 16.1269 236.201 22.2009L236.456 22.3281L236.427 22.3423ZM279.824 29.2802C275.01 29.4643 270.833 29.6341 266.472 29.8748C258.557 30.2854 250.657 30.6819 242.615 31.3473C228.753 32.3243 214.835 33.4285 200.988 34.4055L155.751 37.7612C143.164 38.724 130.577 39.6867 118.047 40.5221C105.078 41.3008 92.1649 41.9519 79.2663 43.5519C77.1142 43.7642 75.033 44.1748 72.626 44.5712C73.9852 46.6525 75.2595 48.2101 76.293 49.9799C79.8469 56.2663 82.0131 63.1475 82.9759 70.2268C84.4342 82.12 83.882 94.2823 81.1635 106.02C80.0167 111.598 77.9354 117.205 76.2222 122.67L75.5993 123.944C75.1037 124.964 74.2967 125.983 73.6737 126.946C71.5641 130.642 69.4545 134.337 67.3448 138.032C66.7927 139.179 65.844 140.142 64.8529 141.543C66.8776 141.897 68.973 142.124 71.1251 142.237C79.6628 141.827 88.2713 141.289 96.8231 140.878C109.226 140.298 121.827 139.646 134.23 139.066C157.904 137.975 181.506 136.701 205.179 135.611C221.122 134.861 237.079 134.111 253.021 133.36C255.428 133.275 257.892 133.049 260.172 132.907C261.163 131.505 261.913 130.287 262.791 129.141C267.789 122.755 272.391 115.86 276.242 108.596C278.408 104.136 280.631 99.5491 282.415 94.9193C285.487 86.6507 287.413 78.1413 288.206 69.4055C289.282 58.1211 287.639 46.6101 283.462 36.0902C282.613 33.9523 281.452 31.8004 280.348 29.535L279.838 29.2944L279.824 29.2802ZM222.934 10.2792C221.348 10.2933 220.088 10.3076 218.757 10.4492C202.248 11.7093 185.853 13.0403 169.287 14.4279C149.607 16.042 129.997 17.5285 110.26 18.9444C90.5225 20.3744 70.8419 21.9741 51.2888 23.659C43.7564 24.2536 36.3514 24.905 28.8332 25.4996C27.5731 25.4996 26.2422 25.9669 25.1661 26.5474C21.8389 28.5437 19.078 31.3048 16.8975 34.4905C14.7171 37.6762 13.1171 41.3149 12.395 45.0528C10.1013 55.2753 9.39332 65.795 10.2145 76.1025C11.2481 89.8363 14.887 103.4 20.9752 115.817C25.1237 124.44 30.4614 132.241 38.7017 137.65C42.2131 140.142 46.4749 141.43 50.6517 141.246C56.0462 136.942 60.4778 131.378 63.5219 125.148C62.5733 125.148 62.2618 125.148 61.7521 125.233C56.6266 125.728 51.5012 126.238 46.5032 126.79C44.79 127.059 42.8928 126.762 41.3071 125.842C40.6699 125.53 40.2167 125.162 39.7778 124.468C39.3955 123.973 39.1266 123.208 39.1266 122.571C38.985 121.877 39.169 121.184 39.2965 120.603C39.608 119.966 39.9195 119.329 40.4151 118.946C41.6044 117.8 43.2468 117.021 44.8325 116.993L68.166 114.642C71.0119 108.157 72.442 100.979 72.3004 93.829L71.7905 93.5885L55.4657 95.1035C51.0341 95.4717 46.7298 95.8962 42.3123 96.2643C40.0327 96.42 37.7532 96.2645 36.3374 93.9849C34.4118 91.1532 32.9818 87.939 31.9199 84.5976C30.7305 80.2368 30.1075 75.6919 30.2491 71.1895C30.1783 70.3683 30.0367 69.6744 29.9093 68.9806C28.012 69.3204 26.3129 69.5897 24.7271 69.6039C23.7785 69.6039 22.8299 69.3065 22.122 68.8109C21.2866 68.2446 20.7203 67.494 20.3805 66.5454C19.2053 63.7703 20.8901 60.9671 24.1749 60.0468C26.766 59.2539 29.4845 58.8432 32.203 58.4326L32.5144 57.7955L33.0101 56.7761C34.5817 50.6171 38.5744 45.3219 44.1104 42.023C49.9013 38.54 56.4002 36.1893 63.0973 35.354C65.1786 34.9575 67.274 34.8584 69.4261 34.646C79.7336 33.5134 89.9845 32.1967 100.235 31.517C118.514 30.172 136.807 29.1386 155.1 27.8077C177.754 26.2219 200.408 24.6359 223.118 22.9369C224.067 22.9369 224.959 22.7248 226.148 22.5265L222.835 9.89685L222.963 10.2792H222.934ZM43.9405 86.6789L73.8011 83.8755C73.8294 81.2137 73.8719 78.8776 73.7869 76.4706C73.702 74.0636 73.2348 71.7842 72.9516 69.448C70.7995 69.3489 68.9023 69.3631 67.1183 69.1365C65.7873 68.9666 64.513 68.6552 63.3662 68.103C62.4742 67.6641 61.7663 66.857 61.4406 65.9083C61.115 64.9597 61.1716 63.8835 61.469 62.9349C61.9645 61.9155 62.4034 61.0238 63.3378 60.3866C64.2723 59.7495 65.221 59.4097 66.3678 59.3389C67.5005 59.2681 68.5907 59.3105 70.3605 59.2255C69.1287 56.8894 67.7695 54.5106 66.297 52.3726C64.6262 50.3055 62.3326 48.8756 59.7982 48.2668C57.2638 47.658 54.602 47.9411 52.2092 48.9889C49.5615 50.2207 47.3102 51.9621 45.4271 54.1992C43.544 56.4362 42.3122 58.985 41.7175 61.845C39.9477 68.0748 39.7636 74.5876 41.1653 80.789C41.3777 82.9411 42.4114 85.0224 43.9547 86.7072L43.9405 86.6789Z" fill="#102185"/>
<path d="M103.676 116.667C102.784 116.228 102.076 115.732 101.509 114.982C100.929 114.231 100.731 113.34 100.717 112.391C100.646 111.57 100.887 110.749 101.255 109.984C101.623 109.22 102.373 108.639 103.138 108.384C104.398 107.733 105.785 107.464 107.244 107.393C122.238 106.657 137.373 105.977 152.495 105.298L217.299 102.169C229.263 101.531 241.284 101.078 253.191 100.569C254.451 100.569 255.726 100.852 257 101.475C257.764 101.843 258.529 102.537 258.925 103.358C259.308 104.179 259.52 105.057 259.209 106.02C259.095 106.912 258.855 107.733 258.288 108.568C257.793 109.276 257.042 109.842 256.15 110.055C255.074 110.324 254.069 110.451 253.05 110.593C242.105 111.088 231.274 111.655 220.329 112.164C198.057 113.297 175.715 114.246 153.302 115.322C139.752 115.973 126.216 116.638 112.737 117.162C110.84 117.191 108.943 117.517 107.102 117.417C105.899 117.304 104.823 117.248 103.676 117.007V116.667Z" fill="#102185"/>
<path d="M110.005 133.43C109.24 133.062 108.66 132.312 108.207 131.618C107.754 130.924 107.555 130.047 107.541 129.098C107.47 128.277 107.584 127.385 107.952 126.62C108.32 125.856 108.943 125.218 109.707 124.949C111.095 124.369 112.666 124.029 114.125 123.944C128.864 123.08 143.617 122.217 158.3 121.48C175.446 120.532 192.663 119.456 209.88 118.366L238.353 116.78C238.664 116.78 238.99 116.78 239.486 116.709C242.785 116.737 245.206 118.55 245.362 121.141C245.517 123.732 243.195 126.224 239.91 126.521C238.07 126.733 236.173 126.748 234.219 126.903C222.071 127.611 209.979 128.192 197.958 128.956C180.303 129.976 162.647 130.995 144.991 132.014C134.924 132.637 124.801 133.062 114.748 133.685C113.36 133.643 111.704 133.473 110.189 133.36L110.005 133.43Z" fill="#102185"/>
<path d="M250.275 89.0571C249.964 89.6942 249.595 90.1473 249.086 90.5296C248.59 90.9119 247.953 91.2373 247.259 91.3789C246.183 91.6479 245.178 91.7755 244.031 91.8604C229.787 92.3418 215.487 92.9363 201.244 93.4177C185.995 94.0265 170.604 94.5787 155.355 95.2017C153.713 95.3432 152.056 95.1735 150.414 94.6921C149.465 94.3807 148.63 93.8286 147.922 93.0074C147.412 92.1295 147.073 91.1808 147.129 90.1048C147.313 89.0854 147.809 88.066 148.488 87.3014C149.168 86.5368 150.187 86.0837 151.263 85.8147C152.467 85.6165 153.6 85.5316 154.874 85.5174L210.008 83.5066C221.08 83.0677 232.095 82.7564 243.054 82.2467C244.187 82.1759 245.404 82.289 246.608 82.4022C247.302 82.5863 247.939 82.898 248.519 83.3369C249.1 83.7758 249.61 84.342 249.935 84.965C250.261 85.588 250.388 86.296 250.459 87.1172C250.402 87.8817 250.346 88.6321 250.034 89.2693L250.289 89.0712L250.275 89.0571Z" fill="#102185"/>
<path d="M130.875 74.6297C128.582 73.5111 127.236 71.4442 127.661 69.9151C128.015 68.2019 128.638 66.2904 130.719 65.8939C132.362 65.4267 133.877 65.2284 135.519 65.0868C146.209 64.4638 156.913 63.841 167.475 63.1472L204.882 61.0234C205.888 60.8819 206.978 60.9385 208.054 60.9951C209.314 60.9951 210.333 61.4763 211.24 62.2267C212.132 62.9771 212.656 64.1809 212.726 65.3135C212.797 66.4462 212.372 67.6636 211.749 68.6123C210.999 69.5042 209.923 70.085 208.734 70.2974C207.02 70.5664 205.378 70.7079 203.736 70.8636C189.747 71.7839 175.701 72.506 161.784 73.2988C152.736 73.7802 143.745 74.4459 134.698 74.9273C133.438 74.9273 132.107 74.7713 130.889 74.658L130.875 74.6297Z" fill="#102185"/>
<path d="M260.611 44.8117C261.63 45.3073 262.649 46.1142 263.23 47.1903C263.81 48.2663 264.009 49.4555 264.094 50.6024C263.98 51.4944 263.541 52.3864 262.862 53.151C262.239 53.7881 261.361 54.3119 260.341 54.4393C259.959 54.5667 259.464 54.6378 258.954 54.7086C255.159 55.0625 251.181 55.487 247.372 55.8552C246.678 55.9967 245.914 55.9402 245.277 55.9402C244.017 55.9402 242.997 55.4589 241.964 54.6519C241.072 53.9015 240.548 52.6981 240.477 51.5654C240.279 50.3619 240.519 49.215 241.27 48.323C241.893 47.3603 242.969 46.7797 244.031 46.5249C249.029 45.647 254.083 45.2788 259.265 44.6417C259.775 44.5709 260.342 44.6985 260.908 44.8117H260.596H260.611Z" fill="#102185"/>
</svg>

<svg xmlns="http://www.w3.org/2000/svg" width="298" height="153" fill="none" viewBox="0 0 298 153"><path fill="#102185" d="M236.427 22.342c5.381-.382 10.251-.68 15.122-.99 9.5-.425 19.058-.652 28.615-1.204 4.488-.17 7.235 1.94 9.118 5.847 5.38 10.96 8.24 22.895 8.566 35.17.156 8.099-.765 16.155-2.832 23.97-1.331 5.65-3.101 11.243-5.508 16.524-1.359 2.803-2.209 5.847-3.639 8.467-3.157 6.173-6.767 11.978-10.633 17.655-2.747 4.021-5.677 7.788-8.99 11.37-.694.764-1.501 1.472-2.506 1.925-1.006.454-2.082.723-3.03.737-4.998.24-9.94.679-14.938.92-22.965 1.274-45.888 2.407-68.853 3.681-17.6.892-35.128 1.657-52.784 2.676-22.271 1.133-44.557 2.265-67.027 3.469-3.228.17-6.386.51-9.387-1.105-1.402-.679-3.172-.594-4.885-.962-5.706-1.204-10.123-4.446-14.47-8.127-6.584-5.876-11.922-13.04-15.744-21.04C5.23 106.402.997 90.176.19 73.724-.518 61.576.742 49.272 4.098 37.52a25.94 25.94 0 0 1 6.145-10.703c3.186-3.328 6.584-6.4 10.222-9.36 1.317-.778 2.832-1.302 4.29-1.373 6.952-.708 13.975-1.232 20.998-1.755 13.28-1.105 26.505-2.068 39.8-3.172 13.606-1.104 27.326-2.138 40.932-3.242l68.967-5.522L225.695.085c.637 0 1.133-.07 1.77-.085 3.299.028 4.828 1.402 5.366 4.503 1.076 5.876 2.223 11.624 3.37 17.698l.255.127zm43.397 6.938c-4.814.184-8.991.354-13.352.595-7.915.41-15.815.807-23.857 1.472-13.862.977-27.78 2.081-41.627 3.059l-45.237 3.355c-12.587.963-25.174 1.926-37.704 2.761-12.969.779-25.882 1.43-38.78 3.03-2.153.212-4.234.623-6.641 1.02 1.36 2.08 2.633 3.638 3.667 5.408 3.554 6.286 5.72 13.168 6.683 20.247 1.458 11.893.906 24.055-1.812 35.793-1.147 5.578-3.229 11.185-4.942 16.65l-.623 1.274c-.495 1.02-1.302 2.039-1.925 3.002l-6.33 11.086c-.551 1.147-1.5 2.11-2.491 3.511 2.025.354 4.12.581 6.272.694 8.538-.41 17.146-.948 25.698-1.359 12.403-.58 25.004-1.232 37.407-1.812 23.674-1.091 47.276-2.365 70.949-3.455l47.842-2.251c2.407-.085 4.871-.311 7.151-.453.991-1.402 1.741-2.62 2.619-3.766 4.998-6.386 9.6-13.281 13.451-20.545 2.166-4.46 4.389-9.047 6.173-13.677a98.5 98.5 0 0 0 5.791-25.513 72.1 72.1 0 0 0-4.744-33.316c-.849-2.138-2.01-4.29-3.114-6.555l-.51-.24zm-56.89-19c-1.586.013-2.846.028-4.177.17a6701 6701 0 0 0-49.47 3.978 5784 5784 0 0 1-59.027 4.516c-19.738 1.43-39.418 3.03-58.971 4.715-7.533.595-14.938 1.246-22.456 1.84-1.26 0-2.59.468-3.667 1.048-3.327 1.997-6.088 4.758-8.268 7.943-2.18 3.186-3.78 6.825-4.503 10.563a104.3 104.3 0 0 0-2.18 31.05c1.033 13.733 4.672 27.297 10.76 39.714 4.149 8.623 9.486 16.424 17.727 21.833 3.511 2.492 7.773 3.78 11.95 3.596 5.394-4.304 9.826-9.868 12.87-16.098-.949 0-1.26 0-1.77.085-5.125.495-10.25 1.005-15.249 1.557-1.713.269-3.61-.028-5.196-.948-.637-.312-1.09-.68-1.53-1.374-.382-.495-.65-1.26-.65-1.897-.142-.694.042-1.387.17-1.968.311-.637.623-1.274 1.118-1.657 1.19-1.146 2.832-1.925 4.418-1.953l23.333-2.351c2.846-6.485 4.276-13.663 4.134-20.813l-.51-.24-16.324 1.514c-4.432.369-8.736.793-13.154 1.161-2.28.156-4.559 0-5.975-2.28-1.925-2.83-3.355-6.045-4.417-9.386-1.19-4.361-1.812-8.906-1.67-13.409-.072-.82-.213-1.515-.34-2.208-1.898.34-3.597.609-5.183.623-.948 0-1.897-.297-2.605-.793-.835-.566-1.402-1.317-1.741-2.266-1.176-2.775.51-5.578 3.794-6.498 2.591-.793 5.31-1.204 8.028-1.614l.311-.638.496-1.019c1.572-6.159 5.564-11.454 11.1-14.753 5.791-3.483 12.29-5.834 18.987-6.669 2.082-.396 4.177-.496 6.33-.708 10.307-1.133 20.557-2.45 30.808-3.129 18.279-1.345 36.572-2.378 54.865-3.71 22.654-1.585 45.308-3.171 68.018-4.87.949 0 1.841-.212 3.03-.41l-3.313-12.63.128.382zM43.941 86.678l29.86-2.803c.028-2.662.07-4.998-.014-7.405-.085-2.407-.552-4.687-.835-7.023-2.153-.1-4.05-.085-5.834-.311-1.33-.17-2.605-.482-3.752-1.034a3.87 3.87 0 0 1-1.925-2.195c-.326-.948-.27-2.025.028-2.973.495-1.02.934-1.911 1.869-2.548.934-.638 1.883-.977 3.03-1.048 1.133-.07 2.223-.029 3.993-.114-1.232-2.336-2.592-4.714-4.064-6.852a11.94 11.94 0 0 0-6.499-4.106c-2.534-.609-5.196-.326-7.589.722-2.648 1.232-4.899 2.973-6.782 5.21a17.1 17.1 0 0 0-3.71 7.646c-1.77 6.23-1.953 12.743-.552 18.944.213 2.152 1.246 4.233 2.79 5.918z"/><path fill="#102185" d="M103.676 116.667c-.892-.439-1.6-.935-2.167-1.685-.58-.751-.778-1.642-.792-2.591-.071-.821.17-1.642.538-2.407.368-.764 1.118-1.345 1.883-1.6 1.26-.651 2.647-.92 4.106-.991 14.994-.736 30.129-1.416 45.251-2.095l64.804-3.129c11.964-.638 23.985-1.091 35.892-1.6 1.26 0 2.535.283 3.809.906.764.368 1.529 1.062 1.925 1.883.383.821.595 1.699.284 2.662-.114.892-.354 1.713-.921 2.548-.495.708-1.246 1.274-2.138 1.487-1.076.269-2.081.396-3.1.538-10.945.495-21.776 1.062-32.721 1.571-22.272 1.133-44.614 2.082-67.027 3.158-13.55.651-27.086 1.316-40.565 1.84-1.897.029-3.794.355-5.635.255-1.203-.113-2.279-.169-3.426-.41zM110.005 133.43c-.765-.368-1.345-1.118-1.798-1.812s-.652-1.571-.666-2.52c-.071-.821.043-1.713.411-2.478.368-.764.991-1.402 1.755-1.671 1.388-.58 2.959-.92 4.418-1.005 14.739-.864 29.492-1.727 44.175-2.464 17.146-.948 34.363-2.024 51.58-3.114l28.473-1.586c.311 0 .637 0 1.133-.071 3.299.028 5.72 1.841 5.876 4.432.155 2.591-2.167 5.083-5.452 5.38-1.84.212-3.737.227-5.691.382-12.148.708-24.24 1.289-36.261 2.053l-52.967 3.058c-10.067.623-20.19 1.048-30.243 1.671-1.388-.042-3.044-.212-4.559-.325zM250.275 89.057c-.311.637-.68 1.09-1.189 1.473a4.5 4.5 0 0 1-1.827.849c-1.076.269-2.081.396-3.228.481-14.244.482-28.544 1.076-42.787 1.558-15.249.608-30.64 1.16-45.889 1.784a13.4 13.4 0 0 1-4.941-.51c-.949-.311-1.784-.863-2.492-1.685-.51-.878-.849-1.826-.793-2.902a5.9 5.9 0 0 1 1.359-2.804c.68-.764 1.699-1.217 2.775-1.486a23 23 0 0 1 3.611-.298l55.134-2.01c11.072-.44 22.087-.75 33.046-1.26 1.133-.071 2.35.042 3.554.155a5.5 5.5 0 0 1 1.911.935c.581.439 1.091 1.005 1.416 1.628.326.623.453 1.331.524 2.152-.057.765-.113 1.515-.425 2.152l.255-.198zM130.875 74.63c-2.293-1.119-3.639-3.186-3.214-4.715.354-1.713.977-3.625 3.058-4.021 1.643-.467 3.158-.666 4.8-.807 10.69-.623 21.394-1.246 31.956-1.94l37.407-2.124c1.006-.141 2.096-.085 3.172-.028 1.26 0 2.279.481 3.186 1.232.892.75 1.416 1.954 1.486 3.087.071 1.132-.354 2.35-.977 3.298-.75.892-1.826 1.473-3.015 1.685-1.714.27-3.356.41-4.998.567-13.989.92-28.035 1.642-41.952 2.435-9.048.481-18.039 1.147-27.086 1.628-1.26 0-2.591-.156-3.809-.269zM260.611 44.812c1.019.495 2.038 1.302 2.619 2.378.58 1.076.779 2.266.864 3.412-.114.892-.553 1.784-1.232 2.549-.623.637-1.501 1.16-2.521 1.288-.382.128-.877.199-1.387.27-3.795.353-7.773.778-11.582 1.146-.694.142-1.458.085-2.095.085-1.26 0-2.28-.481-3.313-1.288-.892-.75-1.416-1.954-1.487-3.087-.198-1.203.042-2.35.793-3.242.623-.963 1.699-1.543 2.761-1.798 4.998-.878 10.052-1.246 15.234-1.883.51-.071 1.077.056 1.643.17h-.312z"/></svg>
